mailbox-up.svg

<svg fill="currentColor" viewBox="0 0 24 24"><path d="M5 9h4v2H5zm17 0v9a2 2 0 0 1-2 2H2V9a5 5 0 0 1 5-5h10a5 5 0 0 1 5 5M10 9a3 3 0 0 0-3-3 3 3 0 0 0-3 3v9h6zm6-2h-4v6h2V9h2z"/></svg>

<svg  viewBox="0 0 24 24" fill="currentColor"><path  d="M5,9H9V11H5V9M22,9V18A2,2 0 0,1 20,20H2V9A5,5 0 0,1 7,4H17A5,5 0 0,1 22,9M10,9A3,3 0 0,0 7,6A3,3 0 0,0 4,9V18H10V9M16,7H12V13H14V9H16V7Z"/></svg>
